X: 14141
T: Frog In The Well, The
R: jig
M: 6/8
K: Eminor
D|~E3 FEE|BEE GFE|DED FDF|AFA dAF|
~E3 FEE|BEE GFE|d2B AFA|BED E2:|
d|efe BAB|def gfe|fdd Add|fdf afd|
efe BAB|def afd|edB AFA|BED E2:|

